X: 1
T: Davaj Me    [G]
R: fast pravo
O: Macedonia
Z: 2019 John Chambers <jc:trillian.mit.edu> (from transcription by Colin Fergusen)
M: 6/16
L: 1/16
P: BV BV BV Taxim BV B
K: G
%%vskip 5
"^Break"|:\
"G"[fd][ge][ge] [ge][fd][ge] | [ge][af][ge] "D"~[f2d2][dB] |\
"C"[dB][ec][ec] [ec][cG][ec] | [ec][fd][ec] "G"~[d2B2]z |\
"C"[dB][ec][ec] [ec][cG][ec] | "C"[ec][fd][ec] "G"~[d2B2][BG] |\
"D7"~[d2B2][cA] [cA][BG][AF] |1 "G"[B2G2][cA] ~[d2B2]z :|2 "G"[B2G2][GD] [B2G2]z |]
M: 2/4
L: 1/16
"^Vocals"|:\
"G"[B4G4] [B2G2][c2A2] | [d8B8] |\
"C"[e2c2][e2c2] [d2B2][e2c2] | "D"[f2d2][e2c2] [e2c2][d2B2] |\
[1 "G"[d4B4] (3[ec][dB][c2A2] :|[2 "G"[d8B8] ||\
|:\
"D"[f2d2][e2c2] [e2c2][d2B2] | "G"[B8G8] |\
"G"[B2G2][c2A2] [d2B2][e2c2] | "D"[d2B2][c2A2] [c2A2][B2G2] | "G"[B8G8] :|
|:\
"Em"[g6e6] (3[af][ge][fd] | "D"[f6d6] (3[ge][fd][ec] |\
"C"[e6c6] (3[fd][ec][dB] | "G"[d8B8] |\
"G"[B2G2][c2A2] [d2B2][e2c2] | "D"[f2d2][e2c2] [e2c2][d2B2] |\
"D"[d2B2][c2A2] [c2A2][B2G2] | "G"[B8G8] :|

%%sep 1 1 500
%%sep 1 1 500

